packages/core/src/svgs/tokens/branded/FLX.svg

<svg width="24" height="24" viewBox="0 0 24 24" fill="none" xmlns="http://www.w3.org/2000/svg">
<path fill-rule="evenodd" clip-rule="evenodd" d="M16.7363 2H14.7153L13.7731 6.60002C13.3731 6.44213 12.9468 6.32633 12.5047 6.26317L13.0521 3.57896H9.73629L9.05208 6.90528C8.35459 7.29243 7.74919 7.82599 7.27747 8.46931C6.80576 9.11262 6.47891 9.85042 6.31938 10.6321C6.15987 11.4136 6.17145 12.2206 6.35334 12.9972C6.53524 13.774 6.88313 14.5021 7.37313 15.1316L6.23102 20.7105C6.19824 20.8655 6.20033 21.0258 6.23711 21.1798C6.27389 21.3339 6.34445 21.4778 6.44368 21.6011C6.54292 21.7245 6.66834 21.8244 6.81088 21.8934C6.95341 21.9624 7.10951 21.9988 7.26786 22H9.28366L10.2942 17.0737C10.71 17.1842 11.1416 17.2474 11.5942 17.2632L10.9468 20.4211H14.2626L15.1521 16.0842C16.1824 15.277 16.8923 14.1298 17.1545 12.8474C17.4168 11.5649 17.2144 10.2311 16.5837 9.08423L17.7679 3.29475C17.8015 3.13944 17.8002 2.97859 17.7638 2.8239C17.7275 2.66921 17.657 2.52458 17.5576 2.40055C17.4584 2.27651 17.3327 2.1762 17.1896 2.1069C17.0466 2.03762 16.8899 2.00109 16.731 2H16.7363ZM11.7363 14.1053C12.3645 14.1053 12.9669 13.8558 13.4111 13.4116C13.8552 12.9674 14.1047 12.365 14.1047 11.7369C14.1047 11.1087 13.8552 10.5063 13.4111 10.0621C12.9669 9.61795 12.3645 9.36844 11.7363 9.36844C11.1082 9.36844 10.5057 9.61795 10.0616 10.0621C9.61741 10.5063 9.36787 11.1087 9.36787 11.7369C9.36787 12.365 9.61741 12.9674 10.0616 13.4116C10.5057 13.8558 11.1082 14.1053 11.7363 14.1053Z" fill="url(#paint0_linear_364_6263)"/>
<defs>
<linearGradient id="paint0_linear_364_6263" x1="15.7235" y1="4.50001" x2="2.96691" y2="13.5862" gradientUnits="userSpaceOnUse">
<stop stop-color="#77D8FE"/>
<stop offset="1" stop-color="#4FDF9D"/>
</linearGradient>
</defs>
</svg>

<svg xmlns="http://www.w3.org/2000/svg" width="24" height="24" fill="none" viewBox="0 0 24 24">
    <path fill="url(#FLX__a)" fill-rule="evenodd" d="M16.736 2h-2.02l-.943 4.6a5.6 5.6 0 0 0-1.268-.337l.547-2.684H9.736l-.684 3.326a5.526 5.526 0 0 0-1.679 8.227L6.231 20.71A1.07 1.07 0 0 0 7.268 22h2.016l1.01-4.926q.623.165 1.3.19l-.647 3.157h3.316l.89-4.337a5.516 5.516 0 0 0 1.43-7l1.185-5.79A1.07 1.07 0 0 0 16.73 2zm-5 12.105a2.368 2.368 0 1 0 0-4.737 2.368 2.368 0 0 0 0 4.737" clip-rule="evenodd"/>
    <defs>
        <linearGradient id="FLX__a" x1="15.723" x2="2.967" y1="4.5" y2="13.586" gradientUnits="userSpaceOnUse">
            <stop stop-color="#77D8FE"/>
            <stop offset="1" stop-color="#4FDF9D"/>
        </linearGradient>
    </defs>
</svg>
